HTML/img/Rhythms/Rhythm_SixtenthNote.svg

<svg width="612" height="792" viewBox="0 0 40 40" xmlns="http://www.w3.org/2000/svg"><path class="Stem" fill="none" stroke="#000" stroke-width=".65" stroke-linecap="round" stroke-linejoin="bevel" d="M17.034 13.566v16.561"/><path class="Note" d="M21.104 9.873c.625 0 1.152.162 1.582.488.404.351.605.794.605 1.328 0 .898-.462 1.738-1.386 2.52-.938.781-1.94 1.171-3.008 1.171-.625 0-1.152-.162-1.582-.488a1.685 1.685 0 01-.606-1.328c0-.898.469-1.738 1.407-2.52.911-.781 1.907-1.171 2.988-1.171"/><path class="Hook" d="M17.334 26.123c.521-.3 1.016-.606 1.485-.918.495-.352.937-.703 1.328-1.055.469-.43.827-.872 1.074-1.328.26-.495.391-.983.391-1.465 0-.456-.091-.918-.274-1.387-.143.183-.566.599-1.269 1.25-.534.495-.99.944-1.367 1.348-.339.365-.652.82-.938 1.367a3.701 3.701 0 00-.43 1.699v.489m5.371-9.258c0 .781-.247 1.556-.742 2.324.326.69.489 1.413.489 2.168 0 .638-.176 1.283-.528 1.934-.377.703-.801 1.276-1.269 1.718l-1.524 1.485a7.897 7.897 0 00-1.269 1.699 3.89 3.89 0 00-.528 1.934h-.625v-10h.625v1.503c3.021-1.575 4.532-3.164 4.532-4.765 0-.352-.092-.762-.274-1.231v-.078c0-.104.039-.208.117-.312a.49.49 0 01.352-.157c.13 0 .247.079.351.235.118.208.183.41.196.605.013.091.026.209.039.352l.039.215c.013.091.019.215.019.371"/></svg>

<?xml version="1.0" encoding="utf-8"?>
<svg width="612px" height="792px" viewBox="0 0 40 40" xmlns="http://www.w3.org/2000/svg">
  <title>Rhythm Reference</title>
  <desc>Generated by MuseScore 2.0.3</desc>
  <polyline class="Stem" fill="none" stroke="#000000" stroke-width="0.65" stroke-linecap="round" stroke-linejoin="bevel" points="17.034 13.566 17.034 30.127"/>
  <path class="Note" d="M 21.104 9.873 C 21.729 9.873 22.256 10.035 22.686 10.361 C 23.09 10.712 23.291 11.155 23.291 11.689 C 23.291 12.587 22.829 13.427 21.905 14.209 C 20.967 14.99 19.965 15.38 18.897 15.38 C 18.272 15.38 17.745 15.218 17.315 14.892 C 16.911 14.541 16.709 14.098 16.709 13.564 C 16.709 12.666 17.178 11.826 18.116 11.044 C 19.027 10.263 20.023 9.873 21.104 9.873"/>
  <path class="Hook" d="M 17.334 26.123 C 17.855 25.823 18.35 25.517 18.819 25.205 C 19.314 24.853 19.756 24.502 20.147 24.15 C 20.616 23.72 20.974 23.278 21.221 22.822 C 21.481 22.327 21.612 21.839 21.612 21.357 C 21.612 20.901 21.521 20.439 21.338 19.97 C 21.195 20.153 20.772 20.569 20.069 21.22 C 19.535 21.715 19.079 22.164 18.702 22.568 C 18.363 22.933 18.05 23.388 17.764 23.935 C 17.478 24.495 17.334 25.061 17.334 25.634 L 17.334 26.123 M 22.705 16.865 C 22.705 17.646 22.458 18.421 21.963 19.189 C 22.289 19.879 22.452 20.602 22.452 21.357 C 22.452 21.995 22.276 22.64 21.924 23.291 C 21.547 23.994 21.123 24.567 20.655 25.009 L 19.131 26.494 C 18.623 27.015 18.2 27.581 17.862 28.193 C 17.51 28.818 17.334 29.462 17.334 30.127 L 16.709 30.127 L 16.709 20.127 L 17.334 20.127 L 17.334 21.63 C 20.355 20.055 21.866 18.466 21.866 16.865 C 21.866 16.513 21.774 16.103 21.592 15.634 C 21.592 15.634 21.592 15.608 21.592 15.556 C 21.592 15.452 21.631 15.348 21.709 15.244 C 21.814 15.14 21.931 15.087 22.061 15.087 C 22.191 15.087 22.308 15.166 22.412 15.322 C 22.53 15.53 22.595 15.732 22.608 15.927 C 22.621 16.018 22.634 16.136 22.647 16.279 L 22.686 16.494 C 22.699 16.585 22.705 16.709 22.705 16.865"/>
</svg>
